; generated by PrusaSlicer 2.3.3+win64 on 2021-11-26 at 23:15:44 UTC

; 

; external perimeters extrusion width = 0.45mm
; perimeters extrusion width = 0.45mm
; infill extrusion width = 0.45mm
; solid infill extrusion width = 0.45mm
; top infill extrusion width = 0.40mm
; first layer extrusion width = 0.42mm

M73 P0 R73
M73 Q0 S74
M201 X1000 Y1000 Z200 E5000 ; sets maximum accelerations, mm/sec^2
M203 X200 Y200 Z12 E120 ; sets maximum feedrates, mm/sec
M204 P1250 R1250 T1250 ; sets acceleration (P, T) and retract acceleration (R), mm/sec^2
M205 X8.00 Y8.00 Z0.40 E4.50 ; sets the jerk limits, mm/sec
M205 S0 T0 ; sets the minimum extruding and travel feed rate, mm/sec
M107
;TYPE:Custom
M862.3 P "MK3S" ; printer model check
M862.1 P0.4 ; nozzle diameter check
M115 U3.10.0 ; tell printer latest fw version
G90 ; use absolute coordinates
M83 ; extruder relative mode
M104 S215 ; set extruder temp
M140 S60 ; set bed temp
M190 S60 ; wait for bed temp
M109 S215 ; wait for extruder temp
G28 W ; home all without mesh bed level
G80 ; mesh bed leveling
G1 Y-3.0 F1000.0 ; go outside print area
G92 E0.0
G1 X60.0 E9.0 F1000.0 ; intro line
M73 Q0 S73
G1 X100.0 E12.5 F1000.0 ; intro line
G92 E0.0
M221 S95

; Don't change E values below. Excessive value can damage the printer.
M907 E430 ; set extruder motor current
G21 ; set units to millimeters
G90 ; use absolute coordinates
M83 ; use relative distances for extrusion
M900 K0.05 ; Filament gcode LA 1.5
M900 K30 ; Filament gcode LA 1.0
;LAYER_CHANGE
;Z:0.2
;HEIGHT:0.2
;BEFORE_LAYER_CHANGE
G92 E0.0
;0.2


G1 E-0.80000 F2100.000
G1 Z0.400 F10800.000
;AFTER_LAYER_CHANGE
;0.2
G1 X100.512 Y45.918
G1 Z0.200
G1 E0.80000 F2100.000
M204 S1000
;TYPE:Skirt
;WIDTH:0.42
G1 F1200.000
G1 X101.207 Y45.795 E0.02213
G1 X105.290 Y45.793 E0.12801
G1 X105.822 Y45.854 E0.01680
G1 X106.324 Y46.031 E0.01668
G1 X107.890 Y46.810 E0.05484
G1 X108.516 Y47.360 E0.02614
G1 X176.968 Y135.683 E3.50364
G1 X177.225 Y136.110 E0.01562
G1 X177.388 Y136.585 E0.01574
G1 X177.447 Y137.083 E0.01574
G1 X177.402 Y137.579 E0.01562
G1 X177.253 Y138.058 E0.01574
G1 X176.795 Y138.984 E0.03239
G1 X176.175 Y139.683 E0.02931
G1 X175.501 Y140.040 E0.02390
G1 X174.753 Y140.164 E0.02378
G1 X78.120 Y140.190 E3.02986
G1 X77.416 Y140.074 E0.02237
G1 X76.778 Y139.754 E0.02237
G1 X76.360 Y139.378 E0.01763
G1 X75.614 Y138.422 E0.03801
G1 X75.345 Y137.967 E0.01657
G1 X75.183 Y137.468 E0.01645
G1 X75.135 Y136.942 E0.01657
G1 X75.204 Y136.418 E0.01657
G1 X97.943 Y48.269 E2.85433
G1 X98.205 Y47.712 E0.01929
G1 X98.602 Y47.242 E0.01929
G1 X99.915 Y46.218 E0.05220
G1 X100.458 Y45.945 E0.01907
;WIPE_START
G1 F8640.000
G1 X101.207 Y45.795 E-0.17630
G1 X103.735 Y45.794 E-0.58370
;WIPE_END
G1 E-0.04000 F2100.000
G1 Z0.600 F10800.000
G1 X97.000 Y45.517
G1 Z0.200
G1 E0.80000 F2100.000
G1 F1200.000
G1 X98.642 Y44.244 E0.06517
G1 X99.832 Y43.680 E0.04127
G1 X100.936 Y43.468 E0.03524
G1 X105.743 Y43.475 E0.15072
G1 X107.138 Y43.829 E0.04514
G1 X108.982 Y44.732 E0.06438
G1 X110.211 Y45.733 E0.04970
G1 X179.056 Y134.563 E3.52373
G1 X179.718 Y136.225 E0.05611
G1 X179.797 Y137.148 E0.02903
G1 X179.719 Y138.037 E0.02800
G1 X178.833 Y140.163 E0.07221
G1 X177.520 Y141.616 E0.06139
G1 X176.386 Y142.220 E0.04030
G1 X175.142 Y142.500 E0.03998
G1 X77.805 Y142.526 E3.05193
G1 X76.506 Y142.240 E0.04172
G1 X75.674 Y141.834 E0.02903
G1 X74.989 Y141.326 E0.02673
G1 X73.605 Y139.648 E0.06820
G1 X72.946 Y138.207 E0.04970
G1 X72.792 Y137.169 E0.03289
G1 X72.866 Y136.128 E0.03272
G1 X95.744 Y47.425 E2.87223
G1 X96.967 Y45.567 E0.06974
G1 X97.255 Y45.796 F10800.000
G1 F1200.000
G1 X98.857 Y44.555 E0.06353
G1 X99.970 Y44.032 E0.03857
G1 X100.953 Y43.845 E0.03136
G1 X105.719 Y43.852 E0.14943
G1 X106.990 Y44.176 E0.04112
G1 X108.797 Y45.061 E0.06310
G1 X109.926 Y45.981 E0.04567
G1 X178.742 Y134.773 E3.52223
M73 P1 R73
M73 Q1 S73
G1 X179.345 Y136.286 E0.05109
G1 X179.420 Y137.132 E0.02661
G1 X179.346 Y137.975 E0.02653
G1 X178.498 Y139.987 E0.06847
G1 X177.313 Y141.300 E0.05545
G1 X176.276 Y141.858 E0.03693
G1 X175.120 Y142.123 E0.03718
G1 X77.826 Y142.149 E3.05059
G1 X76.610 Y141.877 E0.03906
G1 X75.882 Y141.520 E0.02542
G1 X75.264 Y141.068 E0.02401
G1 X73.911 Y139.427 E0.06667
G1 X73.315 Y138.123 E0.04496
G1 X73.170 Y137.173 E0.03014
G1 X73.236 Y136.205 E0.03043
G1 X96.101 Y47.550 E2.87070
M73 P1 R72
G1 X97.222 Y45.846 E0.06393
G1 X97.511 Y46.075 F10800.000
G1 F1200.000
G1 X99.071 Y44.866 E0.06188
G1 X100.107 Y44.384 E0.03585
G1 X100.970 Y44.222 E0.02751
G1 X105.695 Y44.229 E0.14815
G1 X106.841 Y44.523 E0.03711
G1 X108.612 Y45.390 E0.06182
G1 X109.642 Y46.229 E0.04165
G1 X178.428 Y134.983 E3.52073
M73 Q1 S72
G1 X178.972 Y136.348 E0.04609
G1 X179.043 Y137.116 E0.02417
G1 X178.973 Y137.911 E0.02505
G1 X178.163 Y139.810 E0.06472
G1 X177.105 Y140.983 E0.04953
G1 X176.120 Y141.514 E0.03510
G1 X175.099 Y141.746 E0.03281
G1 X77.847 Y141.772 E3.04926
G1 X76.716 Y141.514 E0.03637
G1 X76.090 Y141.204 E0.02193
G1 X75.539 Y140.809 E0.02126
G1 X74.218 Y139.206 E0.06511
G1 X73.683 Y138.040 E0.04021
G1 X73.546 Y137.137 E0.02865
G1 X73.605 Y136.283 E0.02685
G1 X96.459 Y47.674 E2.86919
G1 X97.478 Y46.125 E0.05813
G1 X97.766 Y46.354 F10800.000
G1 F1200.000
G1 X99.284 Y45.177 E0.06022
G1 X100.243 Y44.736 E0.03309
G1 X100.986 Y44.599 E0.02369
G1 X105.670 Y44.606 E0.14686
G1 X106.692 Y44.870 E0.03309
G1 X108.426 Y45.720 E0.06055
G1 X109.357 Y46.477 E0.03762
G1 X178.113 Y135.193 E3.51923
G1 X178.600 Y136.410 E0.04108
G1 X178.666 Y137.133 E0.02276
G1 X178.600 Y137.846 E0.02247
G1 X177.830 Y139.632 E0.06098
G1 X176.896 Y140.668 E0.04373
G1 X176.008 Y141.153 E0.03171
G1 X175.077 Y141.369 E0.02998
G1 X77.869 Y141.395 E3.04789
G1 X76.824 Y141.152 E0.03364
G1 X76.295 Y140.888 E0.01856
G1 X75.813 Y140.548 E0.01846
G1 X74.524 Y138.985 E0.06353
G1 X74.052 Y137.956 E0.03552
G1 X73.923 Y137.140 E0.02588
G1 X73.975 Y136.360 E0.02453
G1 X96.816 Y47.798 E2.86765
M73 P2 R72
M73 Q2 S72
G1 X97.733 Y46.404 E0.05232
G1 X98.022 Y46.633 F10800.000
G1 F1200.000
G1 X99.498 Y45.489 E0.05854
G1 X100.377 Y45.089 E0.03029
G1 X101.002 Y44.976 E0.01992
G1 X105.646 Y44.983 E0.14558
G1 X106.543 Y45.217 E0.02908
G1 X108.241 Y46.049 E0.05929
G1 X109.072 Y46.725 E0.03359
G1 X177.799 Y135.403 E3.51773
G1 X178.227 Y136.473 E0.03613
G1 X178.289 Y137.116 E0.02026
G1 X178.228 Y137.781 E0.02094
G1 X177.497 Y139.453 E0.05720
G1 X176.685 Y140.354 E0.03802
G1 X175.895 Y140.793 E0.02833
G1 X175.055 Y140.992 E0.02709
G1 X77.891 Y141.018 E3.04651
G1 X76.972 Y140.805 E0.02958
G1 X76.500 Y140.571 E0.01651
G1 X76.052 Y140.255 E0.01719
G1 X74.831 Y138.765 E0.06038
G1 X74.420 Y137.869 E0.03092
G1 X74.301 Y137.142 E0.02312
G1 X74.345 Y136.436 E0.02217
G1 X97.174 Y47.923 E2.86610
G1 X97.989 Y46.683 E0.04652
G1 X98.278 Y46.912 F10800.000
G1 F1200.000
G1 X99.711 Y45.801 E0.05684
G1 X100.509 Y45.443 E0.02744
G1 X101.018 Y45.353 E0.01620
G1 X105.621 Y45.360 E0.14431
G1 X106.394 Y45.563 E0.02507
G1 X108.056 Y46.378 E0.05804
G1 X108.787 Y46.973 E0.02956
G1 X177.485 Y135.614 E3.51623
G1 X177.854 Y136.536 E0.03116
G1 X177.912 Y137.134 E0.01883
G1 X177.856 Y137.714 E0.01827
G1 X177.164 Y139.272 E0.05346
G1 X176.473 Y140.041 E0.03243
G1 X175.779 Y140.433 E0.02496
G1 X175.031 Y140.615 E0.02414
G1 X77.912 Y140.641 E3.04511
M73 P2 R71
G1 X77.119 Y140.457 E0.02551
G1 X76.681 Y140.240 E0.01534
G1 X76.291 Y139.963 E0.01498
G1 X75.139 Y138.546 E0.05727
G1 X74.787 Y137.781 E0.02640
G1 X74.678 Y137.141 E0.02037
G1 X74.714 Y136.512 E0.01976
G1 X97.531 Y48.047 E2.86453
M73 Q2 S71
G1 X98.245 Y46.962 E0.04072
G1 X98.789 Y47.470 F10800.000
G1 F1200.000
G1 X100.135 Y46.427 E0.05339
G1 X100.766 Y46.154 E0.02158
G1 X101.047 Y46.108 E0.00893
G1 X105.569 Y46.114 E0.14179
G1 X106.094 Y46.256 E0.01704
G1 X107.686 Y47.036 E0.05557
G1 X108.217 Y47.469 E0.02150
G1 X176.857 Y136.034 E3.51323
G1 X177.109 Y136.666 E0.02134
G1 X177.157 Y137.135 E0.01480
G1 X177.112 Y137.576 E0.01388
G1 X176.502 Y138.907 E0.04591
G1 X176.041 Y139.420 E0.02164
G1 X175.539 Y139.716 E0.01827
G1 X174.983 Y139.861 E0.01802
G1 X77.955 Y139.887 E3.04223
M73 P3 R71
M73 Q3 S71
G1 X77.412 Y139.761 E0.01747
G1 X77.067 Y139.592 E0.01204
G1 X76.773 Y139.380 E0.01137
G1 X75.756 Y138.110 E0.05102
G1 X75.520 Y137.599 E0.01766
G1 X75.434 Y137.132 E0.01489
G1 X75.455 Y136.662 E0.01475
G1 X98.246 Y48.295 E2.86133
G1 X98.756 Y47.520 E0.02911
;WIPE_START
G1 F8640.000
G1 X100.135 Y46.427 E-0.40629
G1 X100.766 Y46.154 E-0.15889
G1 X101.047 Y46.108 E-0.06575
G1 X101.606 Y46.108 E-0.12906
;WIPE_END
G1 E-0.04000 F2100.000
G1 Z0.600 F10800.000
G1 X100.890 Y46.511
G1 Z0.200
G1 E0.80000 F2100.000
G1 F1200.000
G1 X101.060 Y46.485 E0.00541
G1 X105.543 Y46.491 E0.14056
G1 X105.943 Y46.602 E0.01303
G1 X107.500 Y47.365 E0.05437
G1 X107.932 Y47.717 E0.01747
G1 X176.543 Y136.244 E3.51173
G1 X176.737 Y136.730 E0.01642
G1 X176.780 Y137.153 E0.01331
G1 X176.741 Y137.502 E0.01101
G1 X176.173 Y138.722 E0.04221
G1 X175.821 Y139.113 E0.01648
G1 X175.413 Y139.360 E0.01497
G1 X174.956 Y139.484 E0.01482
G1 X77.976 Y139.510 E3.04074
G1 X77.559 Y139.413 E0.01344
G1 X77.248 Y139.261 E0.01083
G1 X77.016 Y139.091 E0.00901
G1 X76.065 Y137.894 E0.04795
G1 X75.885 Y137.504 E0.01347
G1 X75.811 Y137.122 E0.01219
G1 X75.825 Y136.735 E0.01214
G1 X98.603 Y48.420 E2.85969
G1 X99.044 Y47.749 E0.02518
G1 X100.346 Y46.740 E0.05162
G1 X100.834 Y46.534 E0.01663
G1 X100.974 Y46.879 F10800.000
G1 F1200.000
G1 X101.076 Y46.862 E0.00326
G1 X105.515 Y46.868 E0.13918
G1 X105.791 Y46.948 E0.00901
G1 X107.315 Y47.695 E0.05320
G1 X107.647 Y47.965 E0.01344
G1 X176.228 Y136.454 E3.51023
G1 X176.365 Y136.795 E0.01150
G1 X176.403 Y137.169 E0.01178
G1 X176.371 Y137.423 E0.00805
G1 X175.844 Y138.535 E0.03857
G1 X175.598 Y138.808 E0.01151
G1 X175.281 Y139.006 E0.01172
G1 X174.929 Y139.107 E0.01150
G1 X77.998 Y139.133 E3.03920
G1 X77.705 Y139.065 E0.00941
G1 X77.431 Y138.930 E0.00958
G1 X77.263 Y138.805 E0.00658
G1 X76.376 Y137.678 E0.04496
G1 X76.250 Y137.405 E0.00942
G1 X76.188 Y137.108 E0.00953
G1 X76.196 Y136.808 E0.00941
G1 X98.960 Y48.544 E2.85800
G1 X99.300 Y48.028 E0.01938
G1 X100.557 Y47.054 E0.04986
G1 X100.918 Y46.902 E0.01228
G1 X101.061 Y47.246 F10800.000
G1 F1200.000
G1 X105.440 Y47.238 E0.13731
G1 X105.642 Y47.295 E0.00657
G1 X107.130 Y48.024 E0.05196
G1 X107.363 Y48.213 E0.00941
G1 X175.914 Y136.665 E3.50873
M73 P4 R70
M73 Q4 S71
G1 X175.992 Y136.859 E0.00658
G1 X176.025 Y137.182 E0.01018
G1 X176.003 Y137.339 E0.00497
G1 X175.517 Y138.347 E0.03507
G1 X175.377 Y138.502 E0.00656
G1 X175.104 Y138.672 E0.01008
G1 X174.902 Y138.730 E0.00658
G1 X78.019 Y138.755 E3.03770
G1 X77.852 Y138.717 E0.00538
G1 X77.615 Y138.601 E0.00827
G1 X77.512 Y138.522 E0.00405
G1 X76.686 Y137.464 E0.04208
G1 X76.615 Y137.308 E0.00537
G1 X76.562 Y137.052 E0.00819
G1 X76.566 Y136.881 E0.00538
G1 X99.318 Y48.668 E2.85635
M73 Q4 S70
G1 X99.556 Y48.307 E0.01357
G1 X100.768 Y47.367 E0.04808
G1 X101.005 Y47.269 E0.00806
G1 X100.975 Y47.683 F10800.000
G1 F1200.000
G1 X101.149 Y47.616 E0.00585
G1 X105.369 Y47.609 E0.13231
G1 X105.494 Y47.642 E0.00404
G1 X106.945 Y48.353 E0.05065
G1 X107.078 Y48.461 E0.00538
G1 X175.600 Y136.875 E3.50723
G1 X175.647 Y137.191 E0.01003
G1 X175.638 Y137.243 E0.00166
G1 X175.190 Y138.157 E0.03189
G1 X175.155 Y138.196 E0.00166
G1 X174.876 Y138.353 E0.01003
G1 X78.041 Y138.378 E3.03620
G1 X77.769 Y138.245 E0.00947
G1 X76.998 Y137.250 E0.03948
G1 X76.937 Y136.954 E0.00947
G1 X99.675 Y48.793 E2.85470
G1 X99.811 Y48.586 E0.00777
G1 X100.928 Y47.720 E0.04430
;WIPE_START
G1 F8640.000
G1 X101.149 Y47.616 E-0.05653
G1 X104.196 Y47.611 E-0.70347
;WIPE_END
G1 E-0.04000 F2100.000
G1 Z0.600 F10800.000
G1 X100.067 Y48.865
G1 Z0.200
G1 E0.80000 F2100.000
G1 F1200.000
G1 X101.179 Y48.003 E0.04410
G1 X101.238 Y47.983 E0.00197
G1 X105.308 Y47.982 E0.12761
G1 X106.793 Y48.709 E0.05185
G1 X175.253 Y137.042 E3.50404
G1 X175.264 Y137.150 E0.00338
G1 X174.887 Y137.919 E0.02685
G1 X174.795 Y137.976 E0.00338
G1 X78.106 Y138.001 E3.03163
G1 X78.027 Y137.963 E0.00274
G1 X77.336 Y137.071 E0.03538
G1 X77.318 Y136.985 E0.00274
G1 X100.034 Y48.915 E2.85176
; printing object HoneycombDisplayShelf_V2_Grill_Left.stl id:0 copy 0
G1 X100.569 Y49.233 F10800.000
;TYPE:External perimeter
G1 F1200.000
G1 X101.410 Y48.581 E0.03334
G1 X105.203 Y48.586 E0.11894
G1 X106.391 Y49.168 E0.04148
G1 X174.590 Y137.164 E3.49067
M73 P5 R70
M73 Q5 S70
G1 X174.486 Y137.377 E0.00744
G1 X78.350 Y137.403 E3.01425
G1 X77.959 Y136.898 E0.02003
G1 X100.554 Y49.291 E2.83674
G1 X100.964 Y49.299 F10800.000
;WIPE_START
G1 F8640.000
G1 X101.410 Y48.581 E-0.25662
G1 X103.590 Y48.584 E-0.50338
;WIPE_END
G1 E-0.04000 F2100.000
G1 Z0.600 F10800.000
M73 P5 R69
G1 X162.102 Y130.324
G1 Z0.200
G1 E0.80000 F2100.000
G1 F1200.000
G1 X166.647 Y129.039 E0.14810
G1 X170.033 Y132.333 E0.14812
G1 X169.063 Y136.167 E0.12400
G1 X162.274 Y136.198 E0.21287
G1 X160.943 Y134.904 E0.05822
G1 X162.087 Y130.382 E0.14623
G1 X162.025 Y129.932 F10800.000
G1 X161.514 Y130.237
G1 F1200.000
G1 X160.370 Y134.758 E0.14622
G1 X155.825 Y136.044 E0.14810
G1 X152.439 Y132.750 E0.14812
G1 X153.597 Y128.170 E0.14811
G1 X158.143 Y126.885 E0.14810
G1 X161.529 Y130.179 E0.14812
G1 X161.902 Y130.336 F10800.000
G1 X161.954 Y129.704
G1 F1200.000
G1 X158.568 Y126.410 E0.14812
G1 X159.726 Y121.830 E0.14811
G1 X161.166 Y121.423 E0.04691
G1 X166.580 Y128.396 E0.27678
G1 X162.012 Y129.688 E0.14885
G1 X161.768 Y130.058 F10800.000
;WIPE_START
G1 F8640.000
G1 X159.627 Y127.418 E-0.76000
;WIPE_END
G1 E-0.04000 F2100.000
G1 Z0.600 F10800.000
G1 X157.995 Y126.265
G1 Z0.200
G1 E0.80000 F2100.000
G1 F1200.000
G1 X153.450 Y127.550 E0.14810
G1 X150.063 Y124.256 E0.14812
G1 X151.222 Y119.677 E0.14811
G1 X155.767 Y118.391 E0.14810
G1 X159.154 Y121.685 E0.14812
G1 X158.010 Y126.207 E0.14623
G1 X158.104 Y126.650 F10800.000
;WIPE_START
G1 F8640.000
G1 X154.852 Y127.137 E-0.76000
;WIPE_END
G1 E-0.04000 F2100.000
G1 Z0.600 F10800.000
G1 X159.579 Y121.210
G1 Z0.200
G1 E0.80000 F2100.000
G1 F1200.000
G1 X156.192 Y117.916 E0.14812
G1 X156.602 Y116.296 E0.05239
G1 X157.104 Y116.192 E0.01606
G1 X160.744 Y120.880 E0.18613
G1 X159.636 Y121.194 E0.03611
G1 X159.437 Y121.584 F10800.000
;WIPE_START
G1 F8640.000
G1 X157.252 Y118.925 E-0.76000
;WIPE_END
G1 E-0.04000 F2100.000
G1 Z0.600 F10800.000
G1 X155.619 Y117.771
G1 Z0.200
G1 E0.80000 F2100.000
G1 F1200.000
G1 X151.074 Y119.056 E0.14810
M73 Q5 S69
G1 X147.688 Y115.762 E0.14812
G1 X148.847 Y111.183 E0.14811
G1 X152.428 Y110.170 E0.11669
G1 X156.286 Y115.138 E0.19721
G1 X155.634 Y117.713 E0.08327
G1 X155.744 Y118.151 F10800.000
;WIPE_START
G1 F8640.000
G1 X152.477 Y118.643 E-0.76000
;WIPE_END
G1 E-0.04000 F2100.000
G1 Z0.600 F10800.000
G1 X147.129 Y115.561
G1 Z0.200
G1 E0.80000 F2100.000
G1 F1200.000
G1 X147.115 Y115.617 E0.00183
G1 X142.570 Y116.903 E0.14810
G1 X139.184 Y113.609 E0.14812
G1 X140.342 Y109.029 E0.14811
G1 X144.888 Y107.744 E0.14810
G1 X148.274 Y111.038 E0.14812
G1 X147.144 Y115.503 E0.14440
G1 X147.178 Y115.593 F10800.000
;WIPE_START
G1 F8640.000
G1 X147.115 Y115.617 E-0.02734
G1 X144.062 Y116.481 E-0.73266
;WIPE_END
G1 E-0.04000 F2100.000
G1 Z0.600 F10800.000
G1 X148.699 Y110.563
G1 Z0.200
G1 E0.80000 F2100.000
G1 F1200.000
G1 X145.313 Y107.269 E0.14812
G1 X146.365 Y103.112 E0.13445
G1 X146.866 Y103.007 E0.01606
G1 X152.007 Y109.627 E0.26281
G1 X148.757 Y110.546 E0.10589
G1 X148.530 Y110.925 F10800.000
;WIPE_START
G1 F8640.000
G1 X146.372 Y108.277 E-0.76000
;WIPE_END
G1 E-0.04000 F2100.000
G1 Z0.600 F10800.000
G1 X144.740 Y107.124
G1 Z0.200
G1 E0.80000 F2100.000
G1 F1200.000
G1 X140.195 Y108.409 E0.14810
G1 X136.808 Y105.115 E0.14812
G1 X137.967 Y100.536 E0.14811
G1 X142.512 Y99.250 E0.14810
G1 X145.899 Y102.544 E0.14812
G1 X144.755 Y107.065 E0.14623
G1 X144.849 Y107.509 F10800.000
;WIPE_START
G1 F8640.000
G1 X141.597 Y107.996 E-0.76000
;WIPE_END
G1 E-0.04000 F2100.000
G1 Z0.600 F10800.000
G1 X139.770 Y108.884
G1 Z0.200
G1 E0.80000 F2100.000
G1 F1200.000
G1 X138.611 Y113.464 E0.14811
G1 X134.066 Y114.749 E0.14810
G1 X130.679 Y111.455 E0.14812
G1 X131.838 Y106.876 E0.14811
G1 X136.383 Y105.590 E0.14810
G1 X139.727 Y108.842 E0.14624
