; generated by PrusaSlicer 2.3.3+win64 on 2021-11-26 at 23:17:01 UTC

; 

; external perimeters extrusion width = 0.45mm
; perimeters extrusion width = 0.45mm
; infill extrusion width = 0.45mm
; solid infill extrusion width = 0.45mm
; top infill extrusion width = 0.40mm
; first layer extrusion width = 0.42mm

M73 P0 R72
M73 Q0 S72
M201 X1000 Y1000 Z200 E5000 ; sets maximum accelerations, mm/sec^2
M203 X200 Y200 Z12 E120 ; sets maximum feedrates, mm/sec
M204 P1250 R1250 T1250 ; sets acceleration (P, T) and retract acceleration (R), mm/sec^2
M205 X8.00 Y8.00 Z0.40 E4.50 ; sets the jerk limits, mm/sec
M205 S0 T0 ; sets the minimum extruding and travel feed rate, mm/sec
M107
;TYPE:Custom
M862.3 P "MK3S" ; printer model check
M862.1 P0.4 ; nozzle diameter check
M115 U3.10.0 ; tell printer latest fw version
G90 ; use absolute coordinates
M83 ; extruder relative mode
M104 S215 ; set extruder temp
M140 S60 ; set bed temp
M190 S60 ; wait for bed temp
M109 S215 ; wait for extruder temp
G28 W ; home all without mesh bed level
G80 ; mesh bed leveling
G1 Y-3.0 F1000.0 ; go outside print area
G92 E0.0
G1 X60.0 E9.0 F1000.0 ; intro line
G1 X100.0 E12.5 F1000.0 ; intro line
G92 E0.0
M221 S95

; Don't change E values below. Excessive value can damage the printer.
M907 E430 ; set extruder motor current
G21 ; set units to millimeters
G90 ; use absolute coordinates
M83 ; use relative distances for extrusion
M900 K0.05 ; Filament gcode LA 1.5
M900 K30 ; Filament gcode LA 1.0
;LAYER_CHANGE
;Z:0.2
;HEIGHT:0.2
;BEFORE_LAYER_CHANGE
G92 E0.0
;0.2


G1 E-0.80000 F2100.000
G1 Z0.400 F10800.000
;AFTER_LAYER_CHANGE
;0.2
M73 P0 R71
G1 X65.954 Y123.003
G1 Z0.200
G1 E0.80000 F2100.000
M204 S1000
;TYPE:Skirt
;WIDTH:0.42
G1 F1200.000
G1 X65.520 Y122.171 E0.02942
G1 X65.302 Y121.151 E0.03270
G1 X65.275 Y120.658 E0.01550
G1 X65.351 Y120.165 E0.01562
G1 X65.528 Y119.700 E0.01562
G1 X65.799 Y119.282 E0.01562
G1 X66.153 Y118.926 E0.01574
G1 X153.894 Y50.311 E3.49240
G1 X154.716 Y49.905 E0.02872
G1 X156.836 Y49.511 E0.06762
G1 X157.387 Y49.577 E0.01740
G1 X161.317 Y50.586 E0.12722
G1 X161.946 Y50.853 E0.02142
G1 X162.493 Y51.310 E0.02237
G1 X163.516 Y52.629 E0.05232
G1 X163.790 Y53.188 E0.01953
G1 X163.910 Y53.795 E0.01941
G1 X164.013 Y144.799 E2.85335
M73 Q0 S71
G1 X163.951 Y145.320 E0.01645
G1 X163.777 Y145.811 E0.01633
G1 X163.499 Y146.255 E0.01645
G1 X163.129 Y146.628 E0.01645
G1 X162.161 Y147.375 E0.03837
G1 X161.663 Y147.637 E0.01763
G1 X160.962 Y147.789 E0.02249
G1 X160.251 Y147.726 E0.02237
G1 X67.200 Y123.808 E3.01240
G1 X66.513 Y123.505 E0.02355
G1 X65.999 Y123.043 E0.02167
;WIPE_START
G1 F8640.000
G1 X65.520 Y122.171 E-0.22972
G1 X65.302 Y121.151 E-0.24083
G1 X65.275 Y120.658 E-0.11413
G1 X65.351 Y120.165 E-0.11500
G1 X65.444 Y119.921 E-0.06032
;WIPE_END
G1 E-0.04000 F2100.000
G1 Z0.600 F10800.000
G1 X64.162 Y124.530
G1 Z0.200
G1 E0.80000 F2100.000
G1 F1200.000
G1 X63.252 Y122.800 E0.06128
G1 X62.917 Y120.521 E0.07222
G1 X63.060 Y119.641 E0.02795
G1 X63.363 Y118.768 E0.02899
G1 X64.412 Y117.321 E0.05603
G1 X152.655 Y48.314 E3.51236
G1 X154.098 Y47.643 E0.04990
G1 X155.981 Y47.250 E0.06029
G1 X157.680 Y47.239 E0.05329
G1 X162.228 Y48.419 E0.14731
G1 X163.285 Y48.933 E0.03687
G1 X164.238 Y49.740 E0.03914
G1 X165.509 Y51.377 E0.06499
G1 X166.251 Y53.537 E0.07162
G1 X166.350 Y145.099 E2.87085
G1 X166.163 Y146.126 E0.03272
G1 X165.756 Y147.092 E0.03289
G1 X164.759 Y148.325 E0.04970
G1 X163.001 Y149.606 E0.06820
G1 X162.212 Y149.927 E0.02673
G1 X161.305 Y150.114 E0.02903
G1 X159.975 Y150.068 E0.04172
G1 X66.243 Y125.975 E3.03443
G1 X65.110 Y125.395 E0.03992
G1 X64.206 Y124.570 E0.03836
G1 X64.462 Y124.293 F10800.000
G1 F1200.000
G1 X63.620 Y122.712 E0.05616
G1 X63.294 Y120.552 E0.06849
G1 X63.430 Y119.718 E0.02649
G1 X63.710 Y118.919 E0.02657
G1 X64.665 Y117.602 E0.05101
G1 X152.870 Y48.624 E3.51086
M73 P1 R71
M73 Q1 S71
G1 X154.197 Y48.008 E0.04585
G1 X156.040 Y47.623 E0.05903
G1 X157.610 Y47.610 E0.04923
G1 X162.115 Y48.780 E0.14595
G1 X163.061 Y49.237 E0.03295
G1 X163.953 Y49.987 E0.03653
G1 X165.192 Y51.584 E0.06337
G1 X165.874 Y53.569 E0.06581
G1 X165.973 Y145.082 E2.86932
G1 X165.796 Y146.036 E0.03043
G1 X165.419 Y146.920 E0.03014
G1 X164.517 Y148.035 E0.04496
G1 X162.799 Y149.287 E0.06667
G1 X162.088 Y149.571 E0.02401
G1 X161.294 Y149.736 E0.02543
G1 X160.048 Y149.698 E0.03906
G1 X66.358 Y125.615 E3.03309
G1 X65.306 Y125.072 E0.03712
G1 X64.506 Y124.334 E0.03413
G1 X64.762 Y124.057 F10800.000
G1 F1200.000
G1 X64.721 Y124.019 E0.00172
G1 X63.987 Y122.623 E0.04945
G1 X63.671 Y120.583 E0.06474
G1 X63.799 Y119.796 E0.02501
G1 X64.056 Y119.070 E0.02413
G1 X64.918 Y117.883 E0.04602
G1 X153.086 Y48.934 E3.50935
G1 X154.295 Y48.373 E0.04181
G1 X156.099 Y47.996 E0.05778
G1 X157.539 Y47.981 E0.04516
G1 X162.003 Y49.140 E0.14460
G1 X162.838 Y49.542 E0.02906
G1 X163.668 Y50.235 E0.03389
G1 X164.875 Y51.790 E0.06175
G1 X165.497 Y53.600 E0.06001
G1 X165.596 Y145.065 E2.86781
M73 P1 R70
G1 X165.441 Y145.907 E0.02685
G1 X165.083 Y146.748 E0.02865
G1 X164.275 Y147.745 E0.04021
G1 X162.597 Y148.968 E0.06511
G1 X161.965 Y149.214 E0.02126
G1 X161.281 Y149.359 E0.02193
G1 X160.121 Y149.327 E0.03637
G1 X66.472 Y125.255 E3.03176
G1 X65.543 Y124.777 E0.03276
G1 X64.806 Y124.097 E0.03144
G1 X65.002 Y123.766 F10800.000
G1 F1200.000
G1 X64.355 Y122.533 E0.04365
G1 X64.048 Y120.612 E0.06100
G1 X64.160 Y119.905 E0.02244
M73 Q1 S70
G1 X64.402 Y119.222 E0.02272
G1 X65.171 Y118.164 E0.04102
G1 X153.301 Y49.245 E3.50785
G1 X154.393 Y48.737 E0.03776
G1 X156.158 Y48.368 E0.05653
G1 X157.469 Y48.353 E0.04110
G1 X161.891 Y49.501 E0.14324
G1 X162.616 Y49.848 E0.02520
G1 X163.383 Y50.482 E0.03122
G1 X164.559 Y51.997 E0.06011
G1 X165.120 Y53.632 E0.05421
G1 X165.218 Y145.048 E2.86627
G1 X165.074 Y145.817 E0.02453
G1 X164.747 Y146.574 E0.02588
G1 X164.033 Y147.454 E0.03552
G1 X162.396 Y148.648 E0.06353
G1 X161.845 Y148.856 E0.01846
G1 X161.267 Y148.981 E0.01856
G1 X160.194 Y148.956 E0.03365
G1 X66.587 Y124.895 E3.03038
M73 P2 R70
M73 Q2 S70
G1 X65.740 Y124.455 E0.02993
G1 X65.046 Y123.807 E0.02978
G1 X65.304 Y123.533 F10800.000
G1 F1200.000
G1 X64.722 Y122.442 E0.03879
G1 X64.425 Y120.641 E0.05723
G1 X64.530 Y119.982 E0.02091
G1 X64.748 Y119.375 E0.02022
G1 X65.424 Y118.445 E0.03607
G1 X153.516 Y49.555 E3.50635
G1 X154.492 Y49.102 E0.03372
G1 X156.218 Y48.741 E0.05530
G1 X157.399 Y48.724 E0.03703
G1 X161.779 Y49.861 E0.14188
G1 X162.395 Y50.154 E0.02139
G1 X163.098 Y50.731 E0.02851
G1 X164.242 Y52.203 E0.05846
G1 X164.743 Y53.664 E0.04840
G1 X164.841 Y145.030 E2.86472
G1 X164.708 Y145.724 E0.02217
G1 X164.412 Y146.399 E0.02312
G1 X163.791 Y147.165 E0.03092
G1 X162.238 Y148.304 E0.06038
G1 X161.725 Y148.499 E0.01719
G1 X161.210 Y148.608 E0.01651
G1 X160.267 Y148.586 E0.02959
G1 X66.703 Y124.535 E3.02901
G1 X65.940 Y124.134 E0.02704
G1 X65.348 Y123.575 E0.02552
G1 X65.567 Y123.264 F10800.000
G1 F1200.000
G1 X65.088 Y122.349 E0.03238
G1 X64.803 Y120.667 E0.05349
G1 X64.891 Y120.092 E0.01824
G1 X65.094 Y119.528 E0.01880
G1 X65.677 Y118.725 E0.03111
G1 X153.732 Y49.865 E3.50485
G1 X154.590 Y49.467 E0.02967
G1 X156.278 Y49.114 E0.05407
G1 X157.329 Y49.095 E0.03297
G1 X161.667 Y50.222 E0.14053
G1 X162.176 Y50.462 E0.01763
G1 X162.814 Y50.979 E0.02577
G1 X163.925 Y52.410 E0.05679
G1 X164.366 Y53.695 E0.04260
G1 X164.464 Y145.011 E2.86315
G1 X164.343 Y145.629 E0.01976
G1 X164.078 Y146.223 E0.02037
G1 X163.547 Y146.876 E0.02640
G1 X162.078 Y147.962 E0.05727
G1 X161.632 Y148.133 E0.01498
G1 X161.154 Y148.234 E0.01534
G1 X160.340 Y148.215 E0.02551
G1 X66.819 Y124.176 E3.02761
G1 X66.141 Y123.814 E0.02410
G1 X65.611 Y123.305 E0.02304
;WIPE_START
G1 F8640.000
G1 X65.088 Y122.349 E-0.25160
G1 X64.803 Y120.667 E-0.39394
G1 X64.878 Y120.177 E-0.11447
;WIPE_END
G1 E-0.04000 F2100.000
G1 Z0.600 F10800.000
G1 X65.558 Y120.716
G1 Z0.200
G1 E0.80000 F2100.000
G1 F1200.000
G1 X65.622 Y120.279 E0.01386
G1 X65.784 Y119.837 E0.01477
G1 X66.183 Y119.287 E0.02130
G1 X154.162 Y50.486 E3.50185
M73 P3 R69
M73 Q3 S70
G1 X154.786 Y50.196 E0.02158
G1 X156.399 Y49.859 E0.05166
G1 X157.191 Y49.839 E0.02484
G1 X161.446 Y50.943 E0.13782
G1 X161.743 Y51.081 E0.01027
G1 X162.247 Y51.478 E0.02012
G1 X163.291 Y52.823 E0.05339
G1 X163.612 Y53.758 E0.03099
G1 X163.710 Y144.972 E2.85995
M73 Q3 S69
G1 X163.613 Y145.433 E0.01475
G1 X163.414 Y145.864 E0.01489
G1 X163.058 Y146.300 E0.01766
G1 X161.757 Y147.278 E0.05102
G1 X161.419 Y147.409 E0.01137
G1 X161.043 Y147.487 E0.01204
G1 X160.486 Y147.474 E0.01747
G1 X67.054 Y123.458 E3.02474
G1 X66.552 Y123.180 E0.01800
G1 X66.139 Y122.769 E0.01824
G1 X65.820 Y122.159 E0.02161
G1 X65.568 Y120.776 E0.04408
G1 X65.935 Y120.736 F10800.000
G1 F1200.000
G1 X65.983 Y120.389 E0.01100
G1 X66.129 Y119.991 E0.01329
G1 X66.436 Y119.568 E0.01639
G1 X154.377 Y50.796 E3.50035
G1 X154.885 Y50.561 E0.01754
G1 X156.461 Y50.231 E0.05048
G1 X157.123 Y50.211 E0.02077
G1 X161.336 Y51.304 E0.13647
G1 X161.531 Y51.393 E0.00671
G1 X161.964 Y51.729 E0.01719
G1 X162.974 Y53.030 E0.05164
G1 X163.235 Y53.790 E0.02518
G1 X163.333 Y144.951 E2.85831
G1 X163.250 Y145.329 E0.01214
G1 X163.083 Y145.681 E0.01219
G1 X162.812 Y146.014 E0.01347
G1 X161.593 Y146.937 E0.04795
G1 X161.326 Y147.044 E0.00901
G1 X160.988 Y147.114 E0.01083
G1 X160.559 Y147.104 E0.01344
G1 X67.173 Y123.099 E3.02325
G1 X66.762 Y122.866 E0.01480
G1 X66.428 Y122.526 E0.01494
G1 X66.185 Y122.061 E0.01646
G1 X65.946 Y120.795 E0.04038
G1 X66.313 Y120.752 F10800.000
G1 F1200.000
G1 X66.345 Y120.497 E0.00804
G1 X66.474 Y120.145 E0.01176
G1 X66.689 Y119.849 E0.01148
G1 X154.593 Y51.107 E3.49885
G1 X154.983 Y50.925 E0.01349
G1 X156.523 Y50.604 E0.04934
G1 X157.056 Y50.583 E0.01671
G1 X161.227 Y51.666 E0.13513
G1 X161.322 Y51.708 E0.00325
G1 X161.682 Y51.981 E0.01416
G1 X162.657 Y53.237 E0.04986
G1 X162.857 Y53.821 E0.01938
G1 X162.956 Y144.929 E2.85662
G1 X162.888 Y145.222 E0.00941
G1 X162.755 Y145.495 E0.00953
G1 X162.565 Y145.728 E0.00942
G1 X161.426 Y146.598 E0.04496
G1 X161.232 Y146.678 E0.00658
G1 X160.932 Y146.740 E0.00958
G1 X160.632 Y146.733 E0.00941
G1 X67.294 Y122.740 E3.02171
G1 X66.978 Y122.555 E0.01148
G1 X66.720 Y122.285 E0.01170
G1 X66.549 Y121.961 E0.01149
G1 X66.325 Y120.811 E0.03675
G1 X66.708 Y120.604 F10800.000
G1 F1200.000
G1 X66.819 Y120.299 E0.01016
G1 X66.942 Y120.130 E0.00657
G1 X154.808 Y51.417 E3.49735
M73 P4 R69
M73 Q4 S69
G1 X155.081 Y51.290 E0.00945
G1 X156.587 Y50.975 E0.04823
G1 X156.990 Y50.955 E0.01264
G1 X161.113 Y52.026 E0.13358
G1 X161.400 Y52.232 E0.01106
G1 X162.340 Y53.443 E0.04808
G1 X162.480 Y53.853 E0.01357
G1 X162.579 Y144.908 E2.85497
G1 X162.540 Y145.075 E0.00538
G1 X162.425 Y145.310 E0.00819
G1 X162.317 Y145.443 E0.00537
G1 X161.254 Y146.262 E0.04208
G1 X161.135 Y146.313 E0.00405
G1 X160.877 Y146.366 E0.00827
G1 X160.705 Y146.362 E0.00538
G1 X67.413 Y122.382 E3.02021
M73 P4 R68
G1 X67.232 Y122.276 E0.00657
G1 X67.011 Y122.044 E0.01006
G1 X66.913 Y121.859 E0.00655
G1 X66.691 Y120.761 E0.03514
G1 X66.701 Y120.663 E0.00308
G1 X67.164 Y120.453 F10800.000
G1 F1200.000
G1 X67.195 Y120.411 E0.00166
G1 X155.023 Y51.727 E3.49585
G1 X155.180 Y51.655 E0.00540
G1 X156.653 Y51.347 E0.04720
G1 X156.926 Y51.328 E0.00858
G1 X160.968 Y52.378 E0.13093
G1 X161.120 Y52.487 E0.00586
G1 X162.023 Y53.650 E0.04618
G1 X162.103 Y53.884 E0.00777
G1 X162.202 Y144.887 E2.85332
M73 Q4 S68
G1 X162.069 Y145.158 E0.00947
G1 X161.074 Y145.931 E0.03948
G1 X160.778 Y145.992 E0.00947
G1 X67.532 Y122.023 E3.01871
G1 X67.301 Y121.802 E0.01001
G1 X67.277 Y121.756 E0.00166
G1 X67.068 Y120.758 E0.03196
G1 X67.144 Y120.510 E0.00814
G1 X67.491 Y120.658 F10800.000
G1 F1200.000
G1 X155.239 Y52.038 E3.49265
G1 X156.724 Y51.717 E0.04764
G1 X156.868 Y51.703 E0.00455
G1 X160.791 Y52.711 E0.12700
G1 X160.843 Y52.745 E0.00197
G1 X161.706 Y53.857 E0.04411
G1 X161.726 Y53.916 E0.00197
G1 X161.824 Y144.822 E2.85030
G1 X161.786 Y144.901 E0.00274
G1 X160.895 Y145.593 E0.03538
G1 X160.809 Y145.610 E0.00274
G1 X67.704 Y121.678 E3.01414
M73 P5 R68
M73 Q5 S68
G1 X67.629 Y121.600 E0.00338
G1 X67.454 Y120.759 E0.02693
G1 X67.470 Y120.714 E0.00150
; printing object HoneycombDisplayShelf_V2_Grill_Right.stl id:0 copy 0
G1 X68.103 Y120.939 F10800.000
;TYPE:External perimeter
G1 F1200.000
G1 X155.515 Y52.581 E3.47929
G1 X156.821 Y52.309 E0.04183
G1 X160.476 Y53.248 E0.11833
G1 X161.128 Y54.088 E0.03335
G1 X161.226 Y144.578 E2.83725
G1 X160.721 Y144.970 E0.02003
G1 X68.152 Y121.175 E2.99678
G1 X68.115 Y120.998 E0.00567
G1 X68.478 Y120.799 F10800.000
G1 X68.723 Y120.933
;TYPE:Perimeter
G1 F1200.000
G1 X72.789 Y117.754 E0.16181
G1 X72.793 Y121.893 E0.12978
G1 X79.801 Y123.694 E0.22686
G1 X81.648 Y122.625 E0.06691
G1 X86.036 Y125.152 E0.15879
G1 X86.927 Y124.637 E0.03228
G1 X87.054 Y125.558 E0.02917
G1 X110.179 Y131.503 E0.74865
G1 X112.358 Y130.242 E0.07893
G1 X116.747 Y132.769 E0.15879
G1 X117.306 Y132.446 E0.02026
G1 X117.433 Y133.367 E0.02917
G1 X140.558 Y139.312 E0.74865
G1 X141.622 Y138.696 E0.03854
G1 X141.748 Y139.617 E0.02917
G1 X144.838 Y140.412 E0.10003
G1 X145.345 Y139.170 E0.04206
G1 X147.457 Y140.386 E0.07643
G1 X147.685 Y140.254 E0.00825
G1 X147.811 Y141.176 E0.02917
G1 X160.719 Y144.494 E0.41787
G1 X160.636 Y144.558 E0.00331
G1 X68.782 Y120.948 E2.97365
;WIPE_START
G1 F8640.000
G1 X71.355 Y118.896 E-0.76000
;WIPE_END
G1 E-0.04000 F2100.000
G1 Z0.600 F10800.000
G1 X77.254 Y115.280
G1 Z0.200
G1 E0.80000 F2100.000
;TYPE:External perimeter
G1 F1200.000
G1 X81.347 Y117.637 E0.14810
G1 X81.352 Y122.360 E0.14810
G1 X79.745 Y123.290 E0.05821
G1 X73.170 Y121.600 E0.21286
G1 X73.166 Y117.646 E0.12399
G1 X77.202 Y115.310 E0.14622
G1 X77.459 Y114.936 F10800.000
;WIPE_START
G1 F8640.000
G1 X80.072 Y116.921 E-0.76000
;WIPE_END
G1 E-0.04000 F2100.000
G1 Z0.600 F10800.000
G1 X87.318 Y124.711
G1 Z0.200
G1 E0.80000 F2100.000
G1 F1200.000
G1 X90.420 Y122.915 E0.11237
G1 X94.513 Y125.273 E0.14810
G1 X94.515 Y127.087 E0.05688
G1 X87.393 Y125.256 E0.23057
M73 P5 R67
G1 X87.326 Y124.770 E0.01538
G1 X87.041 Y124.423 F10800.000
;WIPE_START
G1 F8640.000
G1 X90.149 Y123.078 E-0.76000
;WIPE_END
G1 E-0.04000 F2100.000
G1 Z0.600 F10800.000
G1 X95.104 Y125.272
G1 Z0.200
G1 E0.80000 F2100.000
G1 F1200.000
G1 X99.192 Y122.906 E0.14810
G1 X103.285 Y125.263 E0.14810
G1 X103.290 Y129.342 E0.12790
G1 X95.106 Y127.239 E0.26493
G1 X95.104 Y125.332 E0.05979
G1 X94.840 Y124.971 F10800.000
;WIPE_START
G1 F8640.000
G1 X97.935 Y123.652 E-0.76000
;WIPE_END
G1 E-0.04000 F2100.000
G1 Z0.600 F10800.000
G1 X103.876 Y125.323
G1 Z0.200
G1 E0.80000 F2100.000
G1 F1200.000
G1 X103.876 Y125.263 E0.00188
G1 X107.964 Y122.896 E0.14810
G1 X112.057 Y125.254 E0.14810
G1 X112.062 Y129.977 E0.14810
G1 X110.124 Y131.099 E0.07022
G1 X103.881 Y129.494 E0.20212
G1 X103.876 Y125.383 E0.12892
G1 X103.818 Y125.308 F10800.000
;WIPE_START
G1 F8640.000
G1 X103.876 Y125.263 E-0.02771
G1 X106.621 Y123.674 E-0.73229
;WIPE_END
G1 E-0.04000 F2100.000
G1 Z0.600 F10800.000
G1 X112.648 Y125.373
G1 Z0.200
G1 E0.80000 F2100.000
G1 F1200.000
G1 X112.648 Y125.253 E0.00376
G1 X116.736 Y122.887 E0.14810
G1 X120.829 Y125.244 E0.14810
G1 X120.834 Y129.968 E0.14810
G1 X116.746 Y132.334 E0.14810
G1 X112.653 Y129.977 E0.14810
G1 X112.648 Y125.433 E0.14246
G1 X112.535 Y125.333 F10800.000
;WIPE_START
G1 F8640.000
G1 X112.648 Y125.253 E-0.04157
G1 X115.341 Y123.695 E-0.71843
;WIPE_END
G1 E-0.04000 F2100.000
G1 Z0.600 F10800.000
G1 X121.420 Y125.424
G1 Z0.200
G1 E0.80000 F2100.000
G1 F1200.000
G1 X121.420 Y125.244 E0.00564
G1 X125.508 Y122.878 E0.14810
G1 X129.601 Y125.235 E0.14810
G1 X129.606 Y129.958 E0.14810
G1 X125.518 Y132.324 E0.14810
G1 X121.425 Y129.967 E0.14810
G1 X121.420 Y125.484 E0.14057
G1 X121.251 Y125.363 F10800.000
;WIPE_START
G1 F8640.000
G1 X121.420 Y125.244 E-0.05542
G1 X124.061 Y123.715 E-0.70458
;WIPE_END
G1 E-0.04000 F2100.000
G1 Z0.600 F10800.000
G1 X134.280 Y122.868
M73 Q5 S67
G1 Z0.200
G1 E0.80000 F2100.000
G1 F1200.000
G1 X138.373 Y125.225 E0.14810
G1 X138.378 Y129.949 E0.14810
G1 X134.290 Y132.315 E0.14810
G1 X130.197 Y129.958 E0.14810
G1 X130.192 Y125.234 E0.14810
G1 X134.228 Y122.898 E0.14622
