; generated by PrusaSlicer 2.3.3+win64 on 2021-11-26 at 20:52:25 UTC

; 

; external perimeters extrusion width = 0.45mm
; perimeters extrusion width = 0.45mm
; infill extrusion width = 0.45mm
; solid infill extrusion width = 0.45mm
; top infill extrusion width = 0.40mm
; first layer extrusion width = 0.42mm

M73 P0 R65
M73 Q0 S65
M201 X1000 Y1000 Z200 E5000 ; sets maximum accelerations, mm/sec^2
M203 X200 Y200 Z12 E120 ; sets maximum feedrates, mm/sec
M204 P1250 R1250 T1250 ; sets acceleration (P, T) and retract acceleration (R), mm/sec^2
M205 X8.00 Y8.00 Z0.40 E4.50 ; sets the jerk limits, mm/sec
M205 S0 T0 ; sets the minimum extruding and travel feed rate, mm/sec
M107
;TYPE:Custom
M862.3 P "MK3S" ; printer model check
M862.1 P0.4 ; nozzle diameter check
M115 U3.10.0 ; tell printer latest fw version
G90 ; use absolute coordinates
M83 ; extruder relative mode
M104 S215 ; set extruder temp
M140 S60 ; set bed temp
M190 S60 ; wait for bed temp
M109 S215 ; wait for extruder temp
G28 W ; home all without mesh bed level
G80 ; mesh bed leveling
G1 Y-3.0 F1000.0 ; go outside print area
G92 E0.0
G1 X60.0 E9.0 F1000.0 ; intro line
G1 X100.0 E12.5 F1000.0 ; intro line
G92 E0.0
M221 S95

; Don't change E values below. Excessive value can damage the printer.
M907 E430 ; set extruder motor current
G21 ; set units to millimeters
G90 ; use absolute coordinates
M83 ; use relative distances for extrusion
M900 K0.05 ; Filament gcode LA 1.5
M900 K30 ; Filament gcode LA 1.0
;LAYER_CHANGE
;Z:0.2
;HEIGHT:0.2
;BEFORE_LAYER_CHANGE
G92 E0.0
;0.2


G1 E-0.80000 F2100.000
G1 Z0.400 F10800.000
;AFTER_LAYER_CHANGE
;0.2
G1 X81.638 Y148.832
G1 Z0.200
G1 E0.80000 F2100.000
M204 S1000
;TYPE:Skirt
;WIDTH:0.42
G1 F1200.000
G1 X80.881 Y148.329 E0.02849
G1 X80.379 Y147.604 E0.02767
G1 X80.042 Y146.757 E0.02858
G1 X79.938 Y146.204 E0.01763
G1 X79.957 Y145.703 E0.01574
G1 X80.081 Y145.217 E0.01574
G1 X80.304 Y144.767 E0.01574
G1 X80.617 Y144.375 E0.01574
G1 X165.433 Y61.650 E3.71481
G1 X166.196 Y61.157 E0.02849
G1 X167.085 Y60.986 E0.02837
G1 X167.937 Y61.145 E0.02720
G1 X168.780 Y61.506 E0.02874
G1 X169.243 Y61.819 E0.01752
G1 X169.581 Y62.179 E0.01550
G1 X169.838 Y62.601 E0.01550
G1 X170.003 Y63.067 E0.01550
G1 X170.067 Y63.557 E0.01550
G1 X170.068 Y145.806 E2.57887
G1 X169.885 Y146.700 E0.02860
G1 X169.383 Y147.457 E0.02849
G1 X168.092 Y148.658 E0.05527
G1 X167.503 Y148.920 E0.02024
G1 X166.864 Y149.014 E0.02024
G1 X82.532 Y149.014 E2.64417
G1 X81.697 Y148.844 E0.02672
;WIPE_START
G1 F8640.000
G1 X80.881 Y148.329 E-0.22268
G1 X80.379 Y147.604 E-0.20374
G1 X80.042 Y146.757 E-0.21044
G1 X79.943 Y146.233 E-0.12314
;WIPE_END
G1 E-0.04000 F2100.000
G1 Z0.600 F10800.000
G1 X79.290 Y150.066
G1 Z0.200
G1 E0.80000 F2100.000
G1 F1200.000
G1 X78.293 Y148.695 E0.05314
G1 X77.596 Y146.564 E0.07029
G1 X77.603 Y145.584 E0.03074
G1 X77.784 Y144.652 E0.02978
G1 X78.696 Y142.984 E0.05958
G1 X164.110 Y59.677 E3.74101
G1 X165.777 Y58.812 E0.05888
G1 X166.700 Y58.650 E0.02939
G1 X167.616 Y58.657 E0.02871
G1 X168.314 Y58.811 E0.02241
G1 X170.627 Y59.894 E0.08008
G1 X171.304 Y60.570 E0.03000
G1 X171.858 Y61.373 E0.03059
G1 X172.404 Y63.173 E0.05899
G1 X172.404 Y146.164 E2.60211
M73 P0 R64
G1 X172.090 Y147.475 E0.04227
G1 X171.639 Y148.384 E0.03181
G1 X169.983 Y150.165 E0.07625
G1 X168.690 Y150.976 E0.04784
G1 X167.219 Y151.351 E0.04761
G1 X82.107 Y151.351 E2.66863
M73 Q1 S65
G1 X80.583 Y150.936 E0.04951
G1 X79.340 Y150.099 E0.04699
G1 X79.552 Y149.788 F10800.000
G1 F1200.000
G1 X78.642 Y148.548 E0.04823
G1 X77.973 Y146.535 E0.06653
G1 X77.977 Y145.638 E0.02811
M73 P1 R64
G1 X78.149 Y144.752 E0.02829
G1 X78.979 Y143.235 E0.05423
G1 X164.354 Y59.966 E3.73926
G1 X165.872 Y59.178 E0.05364
G1 X166.715 Y59.027 E0.02685
G1 X167.593 Y59.034 E0.02754
G1 X168.175 Y59.162 E0.01866
G1 X170.385 Y60.184 E0.07635
G1 X171.025 Y60.824 E0.02838
G1 X171.530 Y61.562 E0.02803
G1 X172.027 Y63.201 E0.05370
G1 X172.027 Y146.141 E2.60053
G1 X171.729 Y147.364 E0.03948
G1 X171.314 Y148.190 E0.02897
G1 X169.724 Y149.889 E0.07298
G1 X168.567 Y150.618 E0.04288
G1 X167.194 Y150.974 E0.04445
G1 X82.132 Y150.974 E2.66706
M73 Q1 S64
G1 X80.714 Y150.582 E0.04614
G1 X79.601 Y149.822 E0.04224
G1 X79.771 Y149.482 F10800.000
G1 F1200.000
G1 X78.990 Y148.401 E0.04184
G1 X78.350 Y146.505 E0.06274
G1 X78.354 Y145.658 E0.02654
G1 X78.513 Y144.854 E0.02570
G1 X79.262 Y143.485 E0.04893
G1 X164.597 Y60.255 E3.73751
G1 X165.966 Y59.544 E0.04838
G1 X166.764 Y59.401 E0.02539
G1 X167.569 Y59.411 E0.02527
G1 X168.037 Y59.513 E0.01500
G1 X170.143 Y60.476 E0.07262
G1 X170.724 Y61.052 E0.02565
G1 X171.203 Y61.751 E0.02656
G1 X171.650 Y63.229 E0.04841
G1 X171.650 Y146.117 E2.59892
G1 X171.368 Y147.252 E0.03664
G1 X170.991 Y147.995 E0.02613
G1 X169.467 Y149.613 E0.06969
G1 X168.392 Y150.283 E0.03970
G1 X167.171 Y150.597 E0.03955
G1 X82.159 Y150.597 E2.66549
G1 X80.848 Y150.228 E0.04271
G1 X79.821 Y149.516 E0.03917
G1 X80.037 Y149.209 F10800.000
G1 F1200.000
G1 X79.337 Y148.252 E0.03717
G1 X78.727 Y146.473 E0.05898
G1 X78.727 Y145.713 E0.02382
G1 X78.877 Y144.955 E0.02420
G1 X79.546 Y143.736 E0.04362
G1 X164.841 Y60.545 E3.73576
G1 X166.062 Y59.910 E0.04317
G1 X166.778 Y59.779 E0.02280
G1 X167.546 Y59.788 E0.02409
G1 X167.900 Y59.865 E0.01138
G1 X169.902 Y60.768 E0.06886
G1 X170.446 Y61.307 E0.02399
G1 X170.875 Y61.939 E0.02395
G1 X171.273 Y63.256 E0.04316
G1 X171.273 Y146.094 E2.59731
M73 P2 R64
M73 Q2 S64
G1 X171.008 Y147.137 E0.03376
G1 X170.668 Y147.798 E0.02329
G1 X169.210 Y149.336 E0.06647
G1 X168.268 Y149.925 E0.03482
G1 X167.146 Y150.220 E0.03638
G1 X82.186 Y150.220 E2.66388
G1 X80.983 Y149.874 E0.03923
G1 X80.086 Y149.243 E0.03438
G1 X80.300 Y148.944 F10800.000
G1 F1200.000
G1 X79.684 Y148.100 E0.03274
G1 X79.104 Y146.440 E0.05513
G1 X79.105 Y145.732 E0.02221
G1 X79.241 Y145.059 E0.02154
G1 X79.829 Y143.986 E0.03835
G1 X165.084 Y60.834 E3.73402
G1 X166.158 Y60.275 E0.03795
G1 X166.827 Y60.153 E0.02132
G1 X167.521 Y60.164 E0.02176
G1 X167.765 Y60.218 E0.00785
G1 X169.662 Y61.060 E0.06506
G1 X170.167 Y61.561 E0.02230
G1 X170.546 Y62.125 E0.02132
G1 X170.896 Y63.284 E0.03795
G1 X170.896 Y146.069 E2.59567
M73 P2 R63
G1 X170.649 Y147.021 E0.03082
G1 X170.347 Y147.599 E0.02045
G1 X168.954 Y149.058 E0.06324
G1 X168.095 Y149.590 E0.03169
G1 X167.122 Y149.843 E0.03150
G1 X82.212 Y149.843 E2.66231
G1 X81.171 Y149.546 E0.03392
G1 X80.349 Y148.978 E0.03134
;WIPE_START
G1 F8640.000
G1 X79.684 Y148.100 E-0.25426
G1 X79.104 Y146.440 E-0.40596
G1 X79.104 Y146.008 E-0.09978
;WIPE_END
G1 E-0.04000 F2100.000
G1 Z0.600 F10800.000
G1 X79.481 Y146.406
G1 Z0.200
G1 E0.80000 F2100.000
G1 F1200.000
G1 X79.478 Y145.787 E0.01938
G1 X79.605 Y145.161 E0.02003
G1 X80.112 Y144.236 E0.03308
G1 X165.328 Y61.123 E3.73228
G1 X166.254 Y60.641 E0.03273
G1 X166.875 Y60.528 E0.01981
G1 X167.494 Y60.541 E0.01940
G1 X167.632 Y60.571 E0.00443
G1 X169.423 Y61.354 E0.06128
G1 X169.865 Y61.788 E0.01941
G1 X170.217 Y62.312 E0.01981
G1 X170.519 Y63.312 E0.03273
G1 X170.519 Y146.044 E2.59402
M73 Q2 S63
G1 X170.291 Y146.902 E0.02783
G1 X170.027 Y147.398 E0.01762
G1 X168.699 Y148.779 E0.06008
G1 X167.970 Y149.233 E0.02692
G1 X167.097 Y149.465 E0.02832
G1 X82.239 Y149.465 E2.66066
G1 X81.308 Y149.194 E0.03041
G1 X80.543 Y148.654 E0.02936
G1 X80.030 Y147.948 E0.02737
G1 X79.501 Y146.462 E0.04945
G1 X80.234 Y146.332 F10800.000
G1 F1200.000
G1 X80.229 Y145.862 E0.01474
G1 X80.331 Y145.371 E0.01574
G1 X80.679 Y144.737 E0.02265
G1 X165.815 Y61.702 E3.72879
M73 P3 R63
M73 Q3 S63
G1 X166.449 Y61.372 E0.02242
G1 X166.937 Y61.279 E0.01557
G1 X167.403 Y61.293 E0.01463
G1 X168.948 Y61.944 E0.05257
G1 X169.283 Y62.269 E0.01463
G1 X169.558 Y62.682 E0.01557
G1 X169.765 Y63.367 E0.02242
G1 X169.765 Y145.991 E2.59063
G1 X169.577 Y146.655 E0.02162
G1 X169.392 Y146.989 E0.01198
G1 X168.190 Y148.221 E0.05398
G1 X167.713 Y148.522 E0.01766
G1 X167.044 Y148.711 E0.02179
G1 X82.295 Y148.711 E2.65727
G1 X81.639 Y148.516 E0.02145
G1 X81.073 Y148.117 E0.02172
G1 X80.718 Y147.637 E0.01870
G1 X80.255 Y146.389 E0.04176
G1 X80.610 Y146.290 F10800.000
G1 F1200.000
G1 X80.602 Y145.917 E0.01170
G1 X80.695 Y145.475 E0.01417
G1 X80.962 Y144.988 E0.01743
G1 X166.058 Y61.991 E3.72704
G1 X166.546 Y61.737 E0.01725
G1 X166.985 Y61.654 E0.01401
G1 X167.354 Y61.668 E0.01157
G1 X168.714 Y62.241 E0.04627
G1 X168.981 Y62.496 E0.01157
G1 X169.229 Y62.868 E0.01401
G1 X169.387 Y63.395 E0.01725
G1 X169.387 Y145.963 E2.58888
G1 X169.222 Y146.525 E0.01838
G1 X169.077 Y146.780 E0.00919
G1 X167.936 Y147.942 E0.05107
G1 X167.580 Y148.168 E0.01322
G1 X167.016 Y148.334 E0.01842
G1 X82.324 Y148.334 E2.65546
G1 X81.782 Y148.166 E0.01778
G1 X81.319 Y147.830 E0.01795
G1 X81.062 Y147.479 E0.01364
G1 X80.632 Y146.347 E0.03799
G1 X80.986 Y146.244 F10800.000
G1 F1200.000
G1 X80.976 Y145.971 E0.00856
G1 X81.058 Y145.579 E0.01254
G1 X81.245 Y145.238 E0.01221
G1 X166.302 Y62.280 E3.72530
G1 X166.643 Y62.102 E0.01208
G1 X167.032 Y62.029 E0.01241
G1 X167.301 Y62.042 E0.00844
G1 X168.483 Y62.541 E0.04022
G1 X168.680 Y62.724 E0.00844
G1 X168.899 Y63.053 E0.01241
G1 X169.010 Y63.422 E0.01208
G1 X169.010 Y145.934 E2.58709
M73 P4 R62
M73 Q4 S63
G1 X168.869 Y146.391 E0.01500
G1 X168.765 Y146.567 E0.00642
G1 X167.682 Y147.662 E0.04830
G1 X167.443 Y147.816 E0.00893
G1 X166.987 Y147.957 E0.01496
G1 X82.352 Y147.957 E2.65366
G1 X81.978 Y147.842 E0.01226
G1 X81.565 Y147.543 E0.01601
G1 X81.404 Y147.320 E0.00860
G1 X81.007 Y146.300 E0.03433
;WIPE_START
G1 F8640.000
G1 X80.976 Y145.971 E-0.07623
G1 X81.058 Y145.579 E-0.09237
G1 X81.245 Y145.238 E-0.08990
G1 X82.800 Y143.722 E-0.50150
;WIPE_END
G1 E-0.04000 F2100.000
G1 Z0.600 F10800.000
G1 X81.845 Y147.290
G1 Z0.200
G1 E0.80000 F2100.000
G1 F1200.000
G1 X81.744 Y147.155 E0.00529
G1 X81.360 Y146.190 E0.03255
G1 X81.351 Y146.022 E0.00528
G1 X81.422 Y145.684 E0.01084
G1 X81.529 Y145.489 E0.00699
G1 X166.545 Y62.570 E3.72356
G1 X166.741 Y62.468 E0.00691
G1 X167.077 Y62.404 E0.01072
G1 X167.242 Y62.416 E0.00520
G1 X168.257 Y62.844 E0.03453
G1 X168.381 Y62.954 E0.00520
G1 X168.570 Y63.239 E0.01072
G1 X168.633 Y63.450 E0.00691
G1 X168.633 Y145.902 E2.58522
M73 Q4 S62
G1 X168.519 Y146.248 E0.01144
G1 X168.457 Y146.349 E0.00370
G1 X167.428 Y147.383 E0.04574
G1 X167.299 Y147.467 E0.00483
G1 X166.955 Y147.580 E0.01136
G1 X82.380 Y147.580 E2.65180
G1 X82.168 Y147.516 E0.00693
G1 X81.895 Y147.324 E0.01047
G1 X82.354 Y147.187 F10800.000
G1 F1200.000
G1 X82.116 Y147.027 E0.00898
G1 X82.081 Y146.983 E0.00176
G1 X81.732 Y146.125 E0.02907
G1 X81.726 Y146.069 E0.00176
G1 X81.785 Y145.788 E0.00898
G1 X81.812 Y145.739 E0.00176
G1 X166.789 Y62.859 E3.72181
G1 X166.838 Y62.833 E0.00174
G1 X167.116 Y62.781 E0.00888
G1 X167.171 Y62.786 E0.00174
G1 X168.041 Y63.153 E0.02958
G1 X168.084 Y63.188 E0.00174
G1 X168.240 Y63.424 E0.00888
G1 X168.256 Y63.478 E0.00174
G1 X168.256 Y145.867 E2.58326
G1 X168.157 Y146.121 E0.00856
G1 X167.174 Y147.104 E0.04356
G1 X166.920 Y147.203 E0.00856
G1 X82.412 Y147.203 E2.64970
G1 X82.493 Y146.826 F10800.000
G1 F1200.000
G1 X82.398 Y146.762 E0.00361
G1 X82.113 Y146.062 E0.02370
G1 X82.137 Y145.949 E0.00361
G1 X166.991 Y63.188 E3.71647
M73 P5 R62
M73 Q5 S62
G1 X167.103 Y63.167 E0.00357
G1 X167.816 Y63.467 E0.02427
G1 X167.879 Y63.562 E0.00357
G1 X167.879 Y145.825 E2.57929
G1 X167.850 Y145.894 E0.00235
G1 X166.947 Y146.797 E0.04004
G1 X166.878 Y146.826 E0.00235
G1 X82.553 Y146.826 E2.64394
; printing object HoneycombDisplayShelf_Grill.stl id:0 copy 0
G1 X82.827 Y146.227 F10800.000
;TYPE:External perimeter
G1 F1200.000
G1 X82.793 Y146.145 E0.00279
G1 X167.174 Y63.846 E3.69571
G1 X167.281 Y63.891 E0.00364
G1 X167.281 Y145.618 E2.56247
M73 P5 R61
G1 X166.671 Y146.227 E0.02704
G1 X82.887 Y146.227 E2.62699
G1 X82.850 Y146.141 F10800.000
;WIPE_START
G1 F8640.000
G1 X82.793 Y146.145 E-0.02882
G1 X85.060 Y143.934 E-0.73118
;WIPE_END
G1 E-0.04000 F2100.000
G1 Z0.600 F10800.000
G1 X159.956 Y72.730
G1 Z0.200
G1 E0.80000 F2100.000
G1 F1200.000
G1 X159.836 Y72.269 E0.01494
G1 X165.941 Y66.296 E0.26780
G1 X166.443 Y66.508 E0.01708
G1 X166.443 Y70.710 E0.13175
G1 X163.479 Y73.674 E0.13144
G1 X160.014 Y72.746 E0.11245
G1 X159.571 Y72.837 F10800.000
;WIPE_START
G1 F8640.000
G1 X159.836 Y72.269 E-0.11749
G1 X161.825 Y70.323 E-0.64251
;WIPE_END
G1 E-0.04000 F2100.000
G1 Z0.600 F10800.000
G1 X163.837 Y74.032
G1 Z0.200
G1 E0.80000 F2100.000
G1 F1200.000
G1 X165.937 Y71.931 E0.09313
G1 X166.443 Y72.141 E0.01718
G1 X166.443 Y79.554 E0.23244
G1 X165.229 Y79.229 E0.03940
G1 X163.852 Y74.090 E0.16683
G1 X163.588 Y73.718 F10800.000
G1 X163.487 Y74.288
G1 F1200.000
G1 X164.880 Y79.486 E0.16871
G1 X161.075 Y83.290 E0.16871
G1 X155.877 Y81.898 E0.16871
G1 X154.655 Y77.337 E0.14804
G1 X159.001 Y73.086 E0.19061
G1 X163.429 Y74.272 E0.14374
G1 X163.871 Y74.175 F10800.000
;WIPE_START
G1 F8640.000
G1 X164.311 Y77.443 E-0.76000
;WIPE_END
G1 E-0.04000 F2100.000
G1 Z0.600 F10800.000
G1 X154.324 Y77.662
G1 Z0.200
G1 E0.80000 F2100.000
G1 F1200.000
G1 X155.527 Y82.154 E0.14583
G1 X151.722 Y85.959 E0.16871
G1 X147.571 Y84.847 E0.13476
G1 X147.450 Y84.386 E0.01494
G1 X154.281 Y77.704 E0.29961
G1 X154.684 Y77.489 F10800.000
;WIPE_START
G1 F8640.000
G1 X155.168 Y80.873 E-0.76000
;WIPE_END
G1 E-0.04000 F2100.000
G1 Z0.600 F10800.000
G1 X155.885 Y82.512
G1 Z0.200
G1 E0.80000 F2100.000
G1 F1200.000
G1 X161.083 Y83.905 E0.16871
G1 X162.475 Y89.102 E0.16871
G1 X158.670 Y92.907 E0.16871
G1 X153.473 Y91.514 E0.16871
G1 X152.080 Y86.317 E0.16871
G1 X155.843 Y82.554 E0.16683
G1 X155.989 Y82.126 F10800.000
;WIPE_START
G1 F8640.000
G1 X159.030 Y83.376 E-0.76000
;WIPE_END
G1 E-0.04000 F2100.000
G1 Z0.600 F10800.000
G1 X161.432 Y83.648
G1 Z0.200
G1 E0.80000 F2100.000
G1 F1200.000
G1 X165.237 Y79.843 E0.16871
G1 X166.443 Y80.166 E0.03914
G1 X166.443 Y89.815 E0.30253
G1 X162.825 Y88.846 E0.11744
G1 X161.448 Y83.706 E0.16683
G1 X161.159 Y83.356 F10800.000
;WIPE_START
G1 F8640.000
G1 X163.753 Y81.357 E-0.76000
;WIPE_END
G1 E-0.04000 F2100.000
G1 Z0.600 F10800.000
G1 X162.833 Y89.460
G1 Z0.200
G1 E0.80000 F2100.000
G1 F1200.000
G1 X166.443 Y90.427 E0.11718
M73 Q5 S61
G1 X166.443 Y99.031 E0.26975
G1 X165.619 Y99.855 E0.03656
G1 X160.421 Y98.462 E0.16871
G1 X159.028 Y93.265 E0.16871
G1 X162.791 Y89.502 E0.16683
G1 X162.937 Y89.074 F10800.000
;WIPE_START
G1 F8640.000
G1 X165.981 Y90.310 E-0.76000
;WIPE_END
G1 E-0.04000 F2100.000
G1 Z0.600 F10800.000
G1 X158.679 Y93.521
G1 Z0.200
G1 E0.80000 F2100.000
G1 F1200.000
G1 X160.071 Y98.719 E0.16871
G1 X156.266 Y102.524 E0.16871
G1 X151.069 Y101.131 E0.16871
G1 X149.676 Y95.934 E0.16871
M73 P6 R61
G1 X153.481 Y92.129 E0.16871
G1 X158.621 Y93.506 E0.16683
M73 Q6 S61
G1 X159.065 Y93.418 F10800.000
;WIPE_START
G1 F8640.000
G1 X159.503 Y96.677 E-0.76000
;WIPE_END
G1 E-0.04000 F2100.000
G1 Z0.600 F10800.000
G1 X156.010 Y102.874
G1 Z0.200
G1 E0.80000 F2100.000
G1 F1200.000
G1 X157.403 Y108.071 E0.16871
G1 X153.598 Y111.876 E0.16871
G1 X148.400 Y110.483 E0.16871
G1 X147.007 Y105.286 E0.16871
G1 X150.812 Y101.481 E0.16871
G1 X155.952 Y102.858 E0.16683
G1 X156.396 Y102.770 F10800.000
;WIPE_START
G1 F8640.000
G1 X156.834 Y106.029 E-0.76000
;WIPE_END
G1 E-0.04000 F2100.000
G1 Z0.600 F10800.000
G1 X146.658 Y105.542
G1 Z0.200
G1 E0.80000 F2100.000
G1 F1200.000
G1 X148.050 Y110.740 E0.16871
G1 X144.245 Y114.545 E0.16871
G1 X139.048 Y113.152 E0.16871
G1 X137.655 Y107.954 E0.16871
G1 X141.460 Y104.149 E0.16871
G1 X146.600 Y105.527 E0.16683
G1 X147.044 Y105.439 F10800.000
;WIPE_START
G1 F8640.000
G1 X147.482 Y108.698 E-0.76000
;WIPE_END
G1 E-0.04000 F2100.000
G1 Z0.600 F10800.000
G1 X148.408 Y111.097
G1 Z0.200
G1 E0.80000 F2100.000
G1 F1200.000
G1 X153.606 Y112.490 E0.16871
G1 X154.998 Y117.688 E0.16871
G1 X151.194 Y121.493 E0.16871
G1 X145.996 Y120.100 E0.16871
G1 X144.603 Y114.902 E0.16871
G1 X148.366 Y111.140 E0.16683
G1 X148.512 Y110.711 F10800.000
;WIPE_START
G1 F8640.000
G1 X151.553 Y111.961 E-0.76000
;WIPE_END
G1 E-0.04000 F2100.000
G1 Z0.600 F10800.000
G1 X144.254 Y115.159
G1 Z0.200
G1 E0.80000 F2100.000
G1 F1200.000
G1 X145.646 Y120.356 E0.16871
G1 X141.841 Y124.161 E0.16871
G1 X136.644 Y122.769 E0.16871
